X: 081853
T: Handsome Brothers
S: "Passing Time" (Jim & Mary Coogan & friends)
C: Mary Coogan
N: for Jim, Ed, and Joe Coogan
L: 1/8
M: 4/4
Q: 350
R: reel
K: D
z | DEFD FGAB | dcde fdeB | =cAGc AGFD | FGAF GBAF |
DEFD FGAB | dcde fdeB | =cAGc AGFD |1 FAGE D3 :|2\
FAGE D2 || 
DE | FD (3DDD A,DFG | A2 BF AGFD | E=C (3CCC G,CEF | GEAF GFEG |
(3FGF DF AFDF | AB=cB AGFD | E=C (3CCC GECD | EDCE D2 :|
